X:1
T:Title
%%score { 1 | 2 }
L:1/8
M:4/4
K:G
V:1 treble nm="Grand Piano"
V:2 bass 
V:1
 z4 z2[Q:1/4=112] D2 | D2 G2 G2 [DFA]2 | [DGB]2 [DAc]2 [DBd]4 | [DGB] [DGB]2 [DGB] [DAc]2 [DGB]2 | %4
[M:3/4] [DFA]6 |[M:1/4] [A,CD]2 |[M:4/4] [B,D]2 [B,DG]2 [B,DG]2 [DFA]2 | [DGB]2 [DAc]2 [DBd]4 | %8
 [EAd] [EAd]2 [EAc] [DGB]2 [CFA]2 |[M:3/4] [B,G]6 |[M:4/4] [Ec] [Ec]2 [Ec] [EG]2 [EA]2 | [DB]6 z2 | %12
 [Fd] [FA]2 [FA] [^CEA]2 [CGB]2 |[M:3/4] [DFA]6 |[M:1/4] [A,CD]2 | %15
[M:4/4] [B,D]2 [B,DG]2 [B,DG]2 [DFA]2 | [DGB]2 [DAc]2 [DBd]4 | [EAd] [EAd]2 [EAc] [DGB]2 [CFA]2 | %18
[M:3/4] [B,G]6 |] %19
V:2
 z4 z2 [G,B,]2 | [G,B,]2 [G,B,D]2 [G,B,D]2 D,2 | G,2 G,2 G,4 | G, G,2 G, F,2 G,2 |[M:3/4] D,6 | %5
[M:1/4] F,2 |[M:4/4] G,2 G,2 G,2 D,2 | G,2 G,2 G,4 | C, C,2 C, D,2 D,2 |[M:3/4] G,6 | %10
[M:4/4] [C,G,] [C,G,]2 [C,G,] [C,C]2 [C,G,]2 | [G,,G,]6 z2 | [D,A,] [D,D]2 [D,D] A,,2 A,,2 | %13
[M:3/4] D,6 |[M:1/4] F,2 |[M:4/4] G,2 G,2 G,2 D,2 | G,2 G,2 G,4 | C, C,2 C, D,2 D,2 |[M:3/4] G,6 |] %19

